X: 21162
Q: "Cheerful"
M: C|
L: 1/8
K: G
d2g>e (ed)(cB) | e2(ag) (gf).e.d | g3e (edc).B | (e2A2) A2Bc |\
d2g>e (edc)B | e2(c'a) (gfe)d | g3e edcB | d2G2 G2 |]\
g>a |
b3g a3f | {a}gfed g3B | ~c3d edcB | e2A>B A2g>a |\
b3c' {b}a2fa | ({a}gf)ed {f}Hg3B |~c3e d2ga | b2g2 g2 H|]



